static/images/mobile/copyright/office-wordmark.svg

<?xml version="1.0" encoding="UTF-8"?>
<svg xmlns="http://www.w3.org/2000/svg" width="140" height="34" viewBox="0 0 140 34">
	<title>
		wikimedia-office-wordmark
	</title>
	<g id="Page-1" fill="none" fill-rule="evenodd" stroke="none" stroke-width="1">
		<g id="wikimedia-office-wordmark" fill="#000" fill-rule="nonzero">
			<path id="Shape" d="M4.02923541,0.0248718235 L7.33718795,9.6253957 L10.2969349,0.0248718235 L14.1769395,0.0248718235 L17.1118145,9.6253957 L20.4197671,0.0248718235 L24.4490025,0.0248718235 L18.6289958,16.7138655 L15.8682235,16.7138655 L12.2120653,5.09872382 L8.58077912,16.7138655 L5.8200067,16.7138655 L-7.22003102e-13,0.0248718235 L4.02923541,0.0248718235 Z M30.1943938,0.0248718235 L30.1943938,16.7138655 L26.4636202,16.7138655 L26.4636202,0.0248718235 L30.1943938,0.0248718235 Z M38.0290182,0.0248718235 L38.0290182,6.88949512 L44.3215895,0.0248718235 L48.9228769,0.0248718235 L42.2821,7.41180342 L48.9228769,16.7138655 L48.9228769,16.7138655 L44.5703078,16.7138655 L39.6954303,10.1228322 L38.0290182,11.988219 L38.0290182,16.7138655 L34.2982447,16.7138655 L34.2982447,0.0248718235 L38.0290182,0.0248718235 Z M54.96673,0.0248718235 L54.96673,16.7138655 L51.2359565,16.7138655 L51.2359565,0.0248718235 L54.96673,0.0248718235 Z M64.119561,0.0248718235 L68.4223865,9.2025747 L72.7500838,0.0248718235 L77.7741922,0.0248718235 L77.7741922,16.7138655 L74.0434187,16.7138655 L74.0434187,6.21795588 L74.0185468,6.21795588 L69.5167468,15.3459151 L67.2782827,15.3459151 L62.8013545,6.21795588 L62.8013545,16.7138655 L59.0705809,16.7138655 L59.0705809,0.0248718235 L64.119561,0.0248718235 Z M103.342427,0.0248718235 C106.351917,0.0248718235 108.615253,0.77102653 110.20705,2.2135923 C111.798847,3.68102988 112.594745,5.69564759 112.594745,8.28231723 C112.594745,10.8689869 111.823719,12.9333482 110.256794,14.4505295 C108.714741,15.9677107 106.327046,16.7138655 103.143452,16.7138655 L97.4478045,16.7138655 L97.4478045,0.0248718235 L103.342427,0.0248718235 Z M119.558855,0.0248718235 L119.558855,16.7138655 L115.828082,16.7138655 L115.828082,0.0248718235 L119.558855,0.0248718235 Z M132.342973,0.0248718235 L139.555801,16.7138655 L135.551438,16.7138655 L134.009385,13.107451 L127.020402,13.107451 L125.47835,16.7138655 L121.52373,16.7138655 L128.736559,0.0248718235 L132.342973,0.0248718235 Z M93.8911338,8.78437108e-13 L93.8911338,3.33282435 L85.5839448,3.33282435 L85.5839448,6.765136 L93.0454918,6.765136 L93.0454918,9.94872942 L85.5839448,9.94872942 L85.5839448,13.4059129 L94.139852,13.4059129 L94.139852,16.6889935 L81.8531712,16.6889935 L81.8531712,8.78437108e-13 L93.8911338,8.78437108e-13 Z M103.267811,3.2830807 L101.178578,3.2830807 L101.178578,13.4307847 L103.541401,13.4307847 C105.257557,13.4307847 106.575764,13.0079637 107.471149,12.1374499 C108.391407,11.2669361 108.8391,10.0233449 108.8391,8.38180453 C108.8391,6.74026418 108.391407,5.47180118 107.471149,4.60128735 C106.550892,3.7059017 105.15807,3.2830807 103.267811,3.2830807 Z M130.502458,4.99923653 L128.413225,9.84924212 L132.591691,9.84924212 L130.502458,4.99923653 Z"/>
			<path id="OFFICE" d="M34.0986537,33.8631291 C35.0331273,33.8631291 35.8759003,33.6606296 36.6269725,33.2556308 C37.3780449,32.8506319 37.9675493,32.2910368 38.3954858,31.5768452 C38.8234224,30.8626537 39.0373906,30.0570109 39.0373906,29.1599167 C39.0373906,28.2628225 38.8234224,27.4571796 38.3954858,26.7429881 C37.9675493,26.0287966 37.3780449,25.4692014 36.6269725,25.0642026 C35.8759003,24.6592037 35.0331273,24.4567043 34.0986537,24.4567043 C33.16418,24.4567043 32.321407,24.6592037 31.5703348,25.0642026 C30.8192624,25.4692014 30.229758,26.0309741 29.8018215,26.7495203 C29.3738849,27.4680667 29.1599167,28.2715321 29.1599167,29.1599167 C29.1599167,30.0483013 29.3738849,30.8517667 29.8018215,31.5703131 C30.229758,32.2888594 30.8192624,32.8506319 31.5703348,33.2556308 C32.321407,33.6606296 33.16418,33.8631291 34.0986537,33.8631291 Z M34.0986537,32.3737785 C33.4873157,32.3737785 32.9371116,32.2366014 32.4480413,31.9622474 C31.9589709,31.6878933 31.5747014,31.3046686 31.2952326,30.8125732 C31.0157639,30.3204779 30.8760295,29.7695923 30.8760295,29.1599167 C30.8760295,28.550241 31.0157639,27.9993554 31.2952326,27.5072601 C31.5747014,27.0151647 31.9589709,26.63194 32.4480413,26.3575859 C32.9371116,26.0832319 33.4873157,25.9460549 34.0986537,25.9460549 C34.7099916,25.9460549 35.2601956,26.0832319 35.749266,26.3575859 C36.2383364,26.63194 36.6226059,27.0151647 36.9020747,27.5072601 C37.1815433,27.9993554 37.3212778,28.550241 37.3212778,29.1599167 C37.3212778,29.7695923 37.1815433,30.3204779 36.9020747,30.8125732 C36.6226059,31.3046686 36.2383364,31.6878933 35.749266,31.9622474 C35.2601956,32.2366014 34.7099916,32.3737785 34.0986537,32.3737785 Z M49.1243827,33.7324843 L49.1243827,30.2312039 L53.5522157,30.2312039 L53.5522157,28.7941113 L49.1243827,28.7941113 L49.1243827,26.0113773 L54.11552,26.0113773 L54.11552,24.5873492 L47.4213699,24.5873492 L47.4213699,33.7324843 L49.1243827,33.7324843 Z M64.0453109,33.7324843 L64.0453109,30.2312039 L68.473144,30.2312039 L68.473144,28.7941113 L64.0453109,28.7941113 L64.0453109,26.0113773 L69.0364482,26.0113773 L69.0364482,24.5873492 L62.3422982,24.5873492 L62.3422982,33.7324843 L64.0453109,33.7324843 Z M78.9662391,33.7324843 L78.9662391,24.5873492 L77.2632263,24.5873492 L77.2632263,33.7324843 L78.9662391,33.7324843 Z M92.2627552,33.8631291 C93.0138274,33.8631291 93.7015826,33.7324843 94.3260206,33.4711947 C94.9504586,33.2099051 95.4766459,32.8310352 95.9045824,32.334585 L95.9045824,32.334585 L94.8041742,31.2894267 C94.1404359,32.0123279 93.323863,32.3737785 92.3544559,32.3737785 C91.7256512,32.3737785 91.1623469,32.2366014 90.6645432,31.9622474 C90.1667394,31.6878933 89.7781033,31.3068461 89.4986345,30.8191055 C89.2191657,30.3313649 89.0794313,29.778302 89.0794313,29.1599167 C89.0794313,28.5415314 89.2191657,27.9884684 89.4986345,27.5007278 C89.7781033,27.0129874 90.1667394,26.63194 90.6645432,26.3575859 C91.1623469,26.0832319 91.7256512,25.9460549 92.3544559,25.9460549 C93.323863,25.9460549 94.1404359,26.3031507 94.8041742,27.0173421 L94.8041742,27.0173421 L95.9045824,25.9852484 C95.4766459,25.4887981 94.9526419,25.1099283 94.3325706,24.8486387 C93.7124993,24.5873492 93.0269276,24.4567043 92.2758552,24.4567043 C91.3501149,24.4567043 90.5138921,24.6592037 89.7671865,25.0642026 C89.0204808,25.4692014 88.4331598,26.0287966 88.0052233,26.7429881 C87.5772868,27.4571796 87.3633185,28.2628225 87.3633185,29.1599167 C87.3633185,30.0570109 87.5751035,30.8626537 87.9986732,31.5768452 C88.4222431,32.2910368 89.0073808,32.8506319 89.7540864,33.2556308 C90.500792,33.6606296 91.3370149,33.8631291 92.2627552,33.8631291 Z M110.995812,33.7324843 L110.995812,32.3084561 L105.821273,32.3084561 L105.821273,29.7870117 L110.249106,29.7870117 L110.249106,28.3891124 L105.821273,28.3891124 L105.821273,26.0113773 L110.81241,26.0113773 L110.81241,24.5873492 L104.11826,24.5873492 L104.11826,33.7324843 L110.995812,33.7324843 Z"/>
		</g>
	</g>
</svg>

<svg xmlns="http://www.w3.org/2000/svg" width="140" height="34"><g fill="#000" fill-rule="nonzero"><path d="m4.03.025 3.307 9.6 2.96-9.6h3.88l2.935 9.6 3.308-9.6h4.029l-5.82 16.689h-2.76L12.211 5.099 8.581 16.714H5.82L0 .024h4.03zm26.164 0v16.689h-3.73V.024h3.73zm7.835 0v6.864L44.322.025h4.6l-6.64 7.387 6.64 9.302H44.57l-4.875-6.591-1.666 1.865v4.726h-3.73V.024h3.73zm16.938 0v16.689h-3.731V.024h3.73zm9.153 0 4.302 9.178L72.75.025h5.024v16.689h-3.73V6.218h-.025l-4.502 9.128h-2.239l-4.477-9.128v10.496h-3.73V.024h5.049zm39.222 0c3.01 0 5.273.746 6.865 2.189 1.592 1.467 2.388 3.482 2.388 6.068 0 2.587-.771 4.651-2.338 6.169-1.542 1.517-3.93 2.263-7.114 2.263h-5.695V.024h5.894zm16.217 0v16.689h-3.73V.024h3.73zm12.784 0 7.213 16.689h-4.005l-1.542-3.607h-6.989l-1.542 3.607h-3.954l7.213-16.69h3.606zM93.891 0v3.333h-8.307v3.432h7.461V9.95h-7.461v3.457h8.556v3.283H81.853V0h12.038zm9.377 3.283h-2.09v10.148h2.363c1.717 0 3.035-.423 3.93-1.294.92-.87 1.368-2.114 1.368-3.755 0-1.642-.448-2.91-1.368-3.78-.92-.896-2.313-1.319-4.203-1.319zM130.502 5l-2.089 4.85h4.179L130.502 5zM34.099 33.863c.934 0 1.777-.202 2.528-.607a4.52 4.52 0 0 0 1.768-1.68c.428-.713.642-1.519.642-2.416s-.214-1.703-.642-2.417a4.52 4.52 0 0 0-1.768-1.679c-.751-.405-1.594-.607-2.528-.607-.935 0-1.778.202-2.529.607a4.506 4.506 0 0 0-1.768 1.686c-.428.718-.642 1.522-.642 2.41 0 .888.214 1.692.642 2.41a4.506 4.506 0 0 0 1.768 1.686c.751.405 1.594.607 2.529.607zm0-1.49a3.315 3.315 0 0 1-1.651-.41 2.98 2.98 0 0 1-1.153-1.15 3.287 3.287 0 0 1-.419-1.653c0-.61.14-1.16.42-1.653a2.98 2.98 0 0 1 1.152-1.15 3.315 3.315 0 0 1 1.65-.41c.612 0 1.162.136 1.651.41.49.275.874.658 1.153 1.15.28.492.42 1.043.42 1.653 0 .61-.14 1.16-.42 1.653a2.98 2.98 0 0 1-1.153 1.15c-.489.274-1.039.41-1.65.41zm15.025 1.36V30.23h4.428v-1.437h-4.428v-2.783h4.992v-1.424H47.42v9.145h1.703zm14.921 0V30.23h4.428v-1.437h-4.428v-2.783h4.991v-1.424h-6.694v9.145h1.703zm14.921 0v-9.146h-1.703v9.145h1.703zm13.297.13c.75 0 1.439-.13 2.063-.392a4.183 4.183 0 0 0 1.579-1.136l-1.1-1.046c-.665.723-1.481 1.085-2.45 1.085-.63 0-1.193-.137-1.69-.412a2.969 2.969 0 0 1-1.166-1.143c-.28-.488-.42-1.04-.42-1.66 0-.617.14-1.17.42-1.658.28-.488.668-.87 1.166-1.143.497-.275 1.06-.412 1.69-.412.969 0 1.785.357 2.45 1.071l1.1-1.032a4.195 4.195 0 0 0-1.572-1.136 5.245 5.245 0 0 0-2.057-.392c-.926 0-1.762.202-2.509.607a4.532 4.532 0 0 0-1.762 1.679c-.428.714-.642 1.52-.642 2.417 0 .897.212 1.703.636 2.417a4.485 4.485 0 0 0 1.755 1.679c.747.405 1.583.607 2.509.607zm18.733-.13v-1.425h-5.175v-2.521h4.428v-1.398h-4.428v-2.378h4.991v-1.424h-6.694v9.145h6.878z"/></g></svg>
